_icons/SVG/597-ferroseed.svg

<svg xmlns="http://www.w3.org/2000/svg" viewBox="0 0 32 32"><title>597-ferroseed</title><polygon points="1.518 21.511 5.194 18.293 7.363 22.878 1.518 21.511" style="fill:#60cd96"/><polygon points="14.846 24.355 13.631 27.642 15.917 32 16 31.831 16 24.355 14.846 24.355" style="fill:#60cd96"/><polygon points="2.659 10.391 7.516 9.868 6.659 14.868 2.659 10.391" style="fill:#60cd96"/><polygon points="13.856 4.391 13.631 4.915 16 4.915 16 0 13.856 4.391" style="fill:#60cd96"/><path d="M7.95378,7.91382A55.01261,55.01261,0,0,1,16,7.43067V3.51079A11.28482,11.28482,0,0,0,7.95378,7.91382Z" style="fill:#d1d4d4"/><path d="M7.95378,7.91382c-.2569.31482-.49683.64524-.72852.98219C7.72841,8.57383,11.873,8.41381,16,8.41553V7.43067A55.01261,55.01261,0,0,0,7.95378,7.91382Z" style="fill:#687271"/><path d="M5.63693,22.89553c.11234.2154.25278.41527.38181.62161A63.35465,63.35465,0,0,1,16,22.70349v-.78588C10.84028,21.9174,5.68331,22.24212,5.63693,22.89553Z" style="fill:#687271"/><path d="M6.01874,23.51714C7.73556,26.26279,10.92321,28.17762,16,28.17762V22.70349A63.35465,63.35465,0,0,0,6.01874,23.51714Z" style="fill:#d1d4d4"/><path d="M4.82762,14.35894a12.46688,12.46688,0,0,0,.80931,8.53659c.04638-.65341,5.20335-.97813,10.36307-.97792V13.41722C10.43428,13.418,4.87929,13.73081,4.82762,14.35894Z" style="fill:#d1d4d4"/><path d="M5.10328,13.38087c-.09743.325-.19926.6493-.27566.97807.05167-.62813,5.60666-.9409,11.17238-.94172V12.346C10.73619,12.35025,5.5081,12.69441,5.10328,13.38087Z" style="fill:#687271"/><path d="M7.22526,8.896a16.0925,16.0925,0,0,0-2.122,4.48486C5.5081,12.69441,10.73619,12.35025,16,12.346V8.41553C11.873,8.41381,7.72841,8.57383,7.22526,8.896Z" style="fill:#d1d4d4"/><path d="M7.22526,16.62947l3.79449,2.23811,3.63961-2.19049V13.4223c-2.85249.02653-5.5765.13673-7.4341.33015Z" style="fill:#53bf8c"/><path d="M8.18312,14.2723a2.83843,2.83843,0,0,0,5.67332,0,2.62334,2.62334,0,0,0-.14965-.838c-2.01185.03229-3.9183.10684-5.44609.22426A2.63943,2.63943,0,0,0,8.18312,14.2723Z" style="fill:#e0b12e"/><path d="M10.23077,14.36753c0,1.06518.47965,1.92864,1.07144,1.92864s1.07143-.86346,1.07143-1.92864a3.17528,3.17528,0,0,0-.12965-.90146c-.65877.01807-1.29591.041-1.90439.06892A3.2227,3.2227,0,0,0,10.23077,14.36753Z" style="fill:#373f3f"/><path d="M13.85644,4.39129c1.1758,1.32618-1.40226,3.6119-2.57806,2.28573L10.0879,3.51079Z" style="fill:#60cd96"/><path d="M8.83428,24.77422c1.32617-1.1758,3.6119,1.40226,2.28573,2.57805L7.95378,28.54276Z" style="fill:#60cd96"/><path d="M14.37367,10.20085A1.51932,1.51932,0,0,0,16,11.647V6.80872Z" style="fill:#60cd96"/><polygon points="30.482 21.511 26.806 18.293 24.637 22.878 30.482 21.511" style="fill:#53bf8c"/><polygon points="17.154 24.355 18.369 27.642 16.083 32 16 31.831 16 24.355 17.154 24.355" style="fill:#53bf8c"/><polygon points="29.341 10.391 24.484 9.868 25.341 14.868 29.341 10.391" style="fill:#53bf8c"/><polygon points="18.144 4.391 18.369 4.915 16 4.915 16 0 18.144 4.391" style="fill:#53bf8c"/><path d="M24.04622,7.91382A55.01261,55.01261,0,0,0,16,7.43067V3.51079A11.28482,11.28482,0,0,1,24.04622,7.91382Z" style="fill:#c8cccb"/><path d="M24.04622,7.91382c.2569.31482.49683.64524.72852.98219C24.27159,8.57383,20.127,8.41381,16,8.41553V7.43067A55.01261,55.01261,0,0,1,24.04622,7.91382Z" style="fill:#5c6664"/><path d="M26.36307,22.89553c-.11234.2154-.25278.41527-.38181.62161A63.35465,63.35465,0,0,0,16,22.70349v-.78588C21.15972,21.9174,26.31669,22.24212,26.36307,22.89553Z" style="fill:#5c6664"/><path d="M25.98126,23.51714C24.26444,26.26279,21.07679,28.17762,16,28.17762V22.70349A63.35465,63.35465,0,0,1,25.98126,23.51714Z" style="fill:#c8cccb"/><path d="M27.17238,14.35894a12.46688,12.46688,0,0,1-.80931,8.53659c-.04638-.65341-5.20335-.97813-10.36307-.97792V13.41722C21.56572,13.418,27.12071,13.73081,27.17238,14.35894Z" style="fill:#c8cccb"/><path d="M26.89672,13.38087c.09743.325.19926.6493.27566.97807-.05167-.62813-5.60666-.9409-11.17238-.94172V12.346C21.26381,12.35025,26.4919,12.69441,26.89672,13.38087Z" style="fill:#5c6664"/><path d="M24.77474,8.896a16.0925,16.0925,0,0,1,2.122,4.48486C26.4919,12.69441,21.26381,12.35025,16,12.346V8.41553C20.127,8.41381,24.27159,8.57383,24.77474,8.896Z" style="fill:#c8cccb"/><path d="M24.77474,16.62947l-3.79449,2.23811-3.63961-2.19049V13.4223c2.85249.02653,5.5765.13673,7.4341.33015Z" style="fill:#46b080"/><path d="M23.81688,14.2723a2.83843,2.83843,0,0,1-5.67332,0,2.62334,2.62334,0,0,1,.14965-.838c2.01185.03229,3.9183.10684,5.44609.22426A2.63943,2.63943,0,0,1,23.81688,14.2723Z" style="fill:#dba728"/><path d="M21.76923,14.36753c0,1.06518-.47965,1.92864-1.07144,1.92864s-1.07143-.86346-1.07143-1.92864a3.17528,3.17528,0,0,1,.12965-.90146c.65877.01807,1.29591.041,1.90439.06892A3.2227,3.2227,0,0,1,21.76923,14.36753Z" style="fill:#2b3332"/><path d="M18.14356,4.39129c-1.1758,1.32618,1.40226,3.6119,2.57806,2.28573L21.9121,3.51079Z" style="fill:#53bf8c"/><path d="M23.16572,24.77422c-1.32617-1.1758-3.6119,1.40226-2.28573,2.57805l3.16623,1.19049Z" style="fill:#53bf8c"/><path d="M17.62633,10.20085A1.51932,1.51932,0,0,1,16,11.647V6.80872Z" style="fill:#53bf8c"/></svg>

<svg xmlns="http://www.w3.org/2000/svg" viewBox="0 0 32 32"><path fill="#60cd96" d="M1.518 21.511l3.676-3.218 2.169 4.585-5.845-1.367zm13.328 2.844l-1.215 3.287L15.917 32l.083-.169v-7.476h-1.154zM2.659 10.391l4.857-.523-.857 5-4-4.477zm11.197-6l-.225.524H16V0l-2.144 4.391z"/><path d="M7.954 7.914A55.013 55.013 0 0116 7.43V3.51a11.285 11.285 0 00-8.046 4.403z" fill="#d1d4d4"/><path d="M7.954 7.914a15.03 15.03 0 00-.729.982c.503-.322 4.648-.482 8.775-.48V7.43a55.013 55.013 0 00-8.046.483zM5.637 22.896c.112.215.253.415.382.621A63.355 63.355 0 0116 22.703v-.785c-5.16 0-10.317.324-10.363.978z" fill="#687271"/><path d="M6.019 23.517c1.717 2.746 4.904 4.66 9.981 4.66v-5.474a63.355 63.355 0 00-9.981.814zm-1.191-9.158a12.467 12.467 0 00.809 8.537c.046-.654 5.203-.979 10.363-.978v-8.5c-5.566 0-11.12.313-11.172.94z" fill="#d1d4d4"/><path d="M5.103 13.38c-.097.326-.199.65-.275.979.051-.628 5.606-.941 11.172-.942v-1.071c-5.264.004-10.492.348-10.897 1.035z" fill="#687271"/><path d="M7.225 8.896a16.093 16.093 0 00-2.122 4.485c.405-.687 5.633-1.03 10.897-1.035v-3.93c-4.127-.002-8.272.158-8.775.48z" fill="#d1d4d4"/><path d="M7.225 16.63l3.795 2.238 3.64-2.19v-3.256c-2.853.027-5.577.137-7.435.33z" fill="#53bf8c"/><path d="M8.183 14.272a2.838 2.838 0 005.673 0 2.623 2.623 0 00-.15-.838c-2.011.033-3.918.107-5.445.225a2.64 2.64 0 00-.078.613z" fill="#e0b12e"/><path d="M10.23 14.368c0 1.065.48 1.928 1.072 1.928s1.072-.863 1.072-1.928a3.175 3.175 0 00-.13-.902c-.659.018-1.296.041-1.904.069a3.223 3.223 0 00-.11.833z" fill="#373f3f"/><path d="M13.856 4.391c1.176 1.326-1.402 3.612-2.578 2.286l-1.19-3.166zM8.834 24.774c1.326-1.176 3.612 1.402 2.286 2.578l-3.166 1.19zm5.54-14.574A1.52 1.52 0 0016 11.648V6.809z" fill="#60cd96"/><path fill="#53bf8c" d="M30.482 21.511l-3.676-3.218-2.169 4.585 5.845-1.367zm-13.328 2.844l1.215 3.287L16.083 32 16 31.831v-7.476h1.154zm12.187-13.964l-4.857-.523.857 5 4-4.477zm-11.197-6l.225.524H16V0l2.144 4.391z"/><path d="M24.046 7.914A55.013 55.013 0 0016 7.43V3.51a11.285 11.285 0 018.046 4.403z" fill="#c8cccb"/><path d="M24.046 7.914c.257.315.497.645.729.982-.503-.322-4.648-.482-8.775-.48V7.43a55.013 55.013 0 018.046.483zm2.317 14.982c-.112.215-.253.415-.382.621A63.355 63.355 0 0016 22.703v-.785c5.16 0 10.317.324 10.363.978z" fill="#5c6664"/><path d="M25.981 23.517c-1.717 2.746-4.904 4.66-9.981 4.66v-5.474a63.355 63.355 0 019.981.814zm1.191-9.158a12.467 12.467 0 01-.809 8.537c-.046-.654-5.203-.979-10.363-.978v-8.5c5.566 0 11.12.313 11.172.94z" fill="#c8cccb"/><path d="M26.897 13.38c.097.326.199.65.275.979-.051-.628-5.606-.941-11.172-.942v-1.071c5.264.004 10.492.348 10.897 1.035z" fill="#5c6664"/><path d="M24.775 8.896a16.093 16.093 0 012.122 4.485c-.405-.687-5.633-1.03-10.897-1.035v-3.93c4.127-.002 8.272.158 8.775.48z" fill="#c8cccb"/><path d="M24.775 16.63l-3.795 2.238-3.64-2.19v-3.256c2.853.027 5.577.137 7.435.33z" fill="#46b080"/><path d="M23.817 14.272a2.838 2.838 0 01-5.673 0 2.623 2.623 0 01.15-.838c2.011.033 3.918.107 5.445.225a2.64 2.64 0 01.078.613z" fill="#dba728"/><path d="M21.77 14.368c0 1.065-.48 1.928-1.072 1.928s-1.072-.863-1.072-1.928a3.175 3.175 0 01.13-.902c.659.018 1.296.041 1.904.069a3.223 3.223 0 01.11.833z" fill="#2b3332"/><path d="M18.144 4.391c-1.176 1.326 1.402 3.612 2.578 2.286l1.19-3.166zm5.022 20.383c-1.326-1.176-3.612 1.402-2.286 2.578l3.166 1.19zM17.626 10.2A1.52 1.52 0 0116 11.648V6.809z" fill="#53bf8c"/></svg>
